app/dist/common/images/solaris-oilfield-infrastructure.svg

<svg height="18" viewBox="0 0 18 18" width="18" xmlns="http://www.w3.org/2000/svg"><path d="m0 0h18v18h-18z" fill="#385563"/><path d="m9.65 11.91-2.26 3.09 1.61-3.51-2 1.01 1.58-1.73-4.58 1.23 4.34-2-2.5-.29 2.5-.44-2.35-1.1 2.47.33-3.46-2.5 3.96 1.84-1.19-2.2 1.79 1.76-1.13-4.4 1.9 4 .36-2.34.41 2.34 1.9-3.67-1.07 3.92-.06.12h-.17a2.67 2.67 0 0 0 -2.7 2.63c0 .65.26 1.32.68 1.8z" fill="#f0f3fa"/></svg>

<!-- by TradingView --><svg width="18" height="18" viewBox="0 0 18 18" xmlns="http://www.w3.org/2000/svg"><path fill="#385563" d="M0 0h18v18H0z"/><path d="M9.65 11.91 7.39 15 9 11.49 7 12.5l1.58-1.73L4 12l4.34-2-2.5-.29 2.5-.44-2.35-1.1 2.47.33L5 6l3.96 1.84-1.19-2.2L9.56 7.4 8.43 3l1.9 4 .36-2.34L11.1 7 13 3.33l-1.07 3.92-.06.12h-.17A2.67 2.67 0 0 0 9 10c0 .65.26 1.32.68 1.8l-.03.11Z" fill="#F0F3FA"/></svg>
